X:1
T:Title
%%score { ( 1 4 ) | ( 2 3 ) }
L:1/8
M:4/4
K:C
V:1 treble nm="Grand Piano"
V:4 treble 
V:2 bass 
V:3 bass 
V:1
 z4 z2 [G,CE]>[G,DF] | [CEG]2 [B,FG]2 [CG]>[G,B,F] [G,CE]>[CEG] | [CFA]2 [^CGA]2 [FA]2 [FA]>[Fc] | %3
 B2 B2 B>A G>F |[M:3/4] E2 [G,DF]2 [CEG]2 |[M:1/4] [G,CE]>[G,DF] | %6
[M:4/4] [CEG]2 [B,FG]2 [CG]>[G,B,F] [G,CE]>[CEG] | [CFA]2 [^CGA]2 [FA]2 [E^G]>[FA] | %8
 [^Fd]2 [Fe]2 [Fd]>[EFc] [DFB]>[CFA] |[M:3/4] [B,G]6 |[M:1/4] [DFG]2 | %11
[M:4/4] [EG]2 [EG]2 [EG]2 [EG]2 | [DFG]2 [FG]2 [DFG]2 [DFG]2 | [DFG]2 [DFG]2 [DFG]2 [DFG]2 | %14
[M:3/4] [CEG]2 [EG]2 [CEG]2 |[M:1/4] G2 |[M:4/4] [Ec]2 [Ec]2 [Ge]>[Fd] [Ec]>[EA] | %17
 [DB]2 [DB]2 [Dd]2 [G,D]2 | [G,^CE]2 .[G,C^F]2 [DB]2 [=CFA]2 |[M:3/4] [B,G]6 |[M:1/4] [B,FG]2 | %21
[M:4/4] [CEc]2 [Ec]2 c>B A>c | B2- [FB]2 F2 F2 | B2 B2 B>A F>A |[M:3/4] G4 z2 |[M:1/4] [EG]2 | %26
[M:4/4] [Ec]2 [Ec]2 [Ec]>E F>G |[M:9/8] A2 A- A c2- c d2 |[M:5/4] e2 c2 [eg]3 [df]3 | %29
[M:11/8] [Ece]-[Ece]-[Ece]-[Ece]-[Ece]-[Ece]- [Ece]3 z2 |] %30
V:2
 z4 z2 C,>C, | C,2 D,2 E,>D, C,>C, | F,2 E,2 [D,D]2 [D,D]>[D,A,] | %3
 [G,F]2 [G,DF]2 [G,DF]>[G,B,F] [G,CE]>[K:bass][G,D] |[M:3/4] [C,G,C]2 C,2 C,2 |[M:1/4] C,>C, | %6
[M:4/4] C,2 D,2 E,>D, C,>C, | F,2 E,2 [D,D]2 [D,D]>[D,D] | [D,C]2 [D,C]2 [D,A,]>D, D,>D, | %9
[M:3/4] G,2 G,>G, G,2 |[M:1/4] G,2 |[M:4/4][K:treble] C2 C2 C>B, A,>C | B,4 z4 | %13
 B,2 B,2 B,>A, F,>A, |[M:3/4] z2 C2 E,2 |[M:1/4] G,2 | %16
[M:4/4] [C,G,]2 [C,G,]2 [C,C]>[C,G,] [C,G,]>[C,G,] | [D,G,]2 [D,G,]2 [B,,G,]2 B,,2 | %18
 A,,2 z G [D,G,]2 D,2 |[M:3/4] G,2 F,2 E,2 |[M:1/4] D,2 |[M:4/4] C,2 [C,G,]2 [C,G,]2 [C,G,]2 | %22
 [D,G,]2 [D,A,]2[K:treble] [G,B,D]2 [G,B,D]2 | [G,DF]2 [G,DF]2 [G,DF]2[K:bass] [G,B,D]2 | %24
[M:3/4] [C,C]2 [C,C]2 [C,G,]2 |[M:1/4] [C,C]2 | %26
[M:4/4] [C,G,]2 [C,G,]2 [C,G,]>[_B,C] [A,CD]>[G,CE] | %27
[M:9/8] [F,CF]2 [F,CF]- [F,CF] [^F,A,_E]2- [F,A,E][K:treble] [A,C^F]2 | %28
[M:5/4] [G,CG]2 [G,CE]2 [G,A,G]3 [G,B,F]3 |[M:11/8][K:bass] C,- C,3 z z z z z z2 |] %30
V:3
 x8 | x8 | x8 | x15/2[K:bass] x/ |[M:3/4] x6 |[M:1/4] x2 |[M:4/4] x8 | x8 | x8 |[M:3/4] x6 | %10
[M:1/4] x2 |[M:4/4][K:treble] x8 | z2 D2 F,2 G,2 | x8 |[M:3/4] G,4 z2 |[M:1/4] x2 |[M:4/4] x8 | %17
 x8 | z2 A,,2 z4 |[M:3/4] x6 |[M:1/4] x2 |[M:4/4] x8 | x4[K:treble] x4 | x6[K:bass] x2 | %24
[M:3/4] x6 |[M:1/4] x2 |[M:4/4] x8 |[M:9/8] x7[K:treble] x2 |[M:5/4] x10 | %29
[M:11/8][K:bass] C2- [G,,C-]2 [C,,C]-[C,,C]- [C,,C]3 z2 |] %30
V:4
 x8 | x8 | x8 | x8 |[M:3/4] x6 |[M:1/4] x2 |[M:4/4] x8 | x8 | x8 |[M:3/4] x6 |[M:1/4] x2 | %11
[M:4/4] x8 | x8 | x8 |[M:3/4] x6 |[M:1/4] x2 |[M:4/4] x8 | x8 | x8 |[M:3/4] x6 |[M:1/4] x2 | %21
[M:4/4] z4 E2 E2 | F2 z2 z4 | x8 |[M:3/4] E2 E2 E2 |[M:1/4] x2 |[M:4/4] x8 |[M:9/8] x9 | %28
[M:5/4] x10 |[M:11/8] z2 G,2 C,-C,- C,3 z2 |] %30

